X:3832
T:Love was once a little Boy. CJF.149
O:england
M:2/4
L:1/8
Q:160
S: C.J.Fox MS, 1829/33, Beverley,E.Yorks.
R:Air
A:East Yorkshire
B:Kidson Coll.Mitchell Lib.M1805
K:Eb
EE GG|BBe2|czFz|BzEz|EE GG|BBe2|
fzBz|AzBz|_dd dd|_dBG2|cc  cc|AF Dz|EE GG|BBhe2|czAz|BzE2||


